!! Stephen C. Foster, "If You've Only Got a Moustache"
!! from 'Stephen Foster Song Book' Dover Publications (New York) pp. 50-52
!! NOTE:  Leading and trailing bars of rest have been omitted.
**kern
*M6/8
*MM108
*D:
8a
=1
8f#
8d
8d
8d
8d
8d
=2
[4.d
4d]
8a
=3
8b
8g
8g
8g
8g
8g
=4
4.g
4dd
8b
=5
8a
8f#
8f#
8f#
8f#
8f#
=6
[4.f#
4f#]
8a
=7
8g
8a
8g
8f#
8g
8f#
=8
[4.e
4e]
8a
=9
8a
8f#
8a
8a
8b
8a
=10
[4.a
4a]
8a
=11
8b
8g
8a
8b
8ee;
8dd
=12
[4.cc#
4cc#]
16b
16cc#
=13
8dd
8ff#
8ee
8ee
8dd
8cc#
=14
[4.dd
4dd]
16cc#
16b
=15
4a
8f#
8g
8f#
8e
=16
4f#
8r
4dd
8b
=17
4a
8r
4dd
8b
=18
4a
8r
4dd;
8b
=19
4a
8f#
8g
8f#
8e
=20
[4.d
4d]
8r
=21
4.r
4r
8a
=22
8f#
8d
8d
8d
8d
8d
=23
[4.d
4d]
8a
=24
8b
8g
8g
8g
8g
8g
=25
4.g
4dd
8b
=26
8a
8f#
8f#
8f#
8f#
8f#
=27
[4.f#
4f#]
8a
=28
8g
8a
8g
8f#
8g
8f#
=29
[4.e
4e]
8a
=30
8a
8f#
8a
8a
8b
8a
=31
[4.a
4a]
8a
=32
8b
8g
8a
8b
8ee;
8dd
=33
[4.cc#
4cc#]
16b
16cc#
=34
8dd
8ff#
8ee
8ee
8dd
8cc#
=35
[4.dd
4dd]
16cc#
16b
=36
4a
8f#
8g
8f#
8e
=37
4f#
8r
4dd
8b
=38
4a
8r
4dd
8b
=39
4a
8r
4dd;
8b
=40
4a
8f#
8g
8f#
8e
=41
[4.d
4d]
8r
=42
4.r
4.r
==
*-
